X: 41336
T: Turkey In The Straw
R: reel
M: 4/4
K: Gmajor
BA|:GEEF EDB,^C|D2 (3DDD DEGA|Bdde dBGA|BAAG AcBA|
GEEF EDB,^C|D2 (3DDD DEGA|Bdde dBGA|1 BGAF G2 BA:|2 BGAF G3 A||
BddB dBAc|BddB d2 BA|(3B^cdef gfed|BABd e2 ef|
gfge dged|B2 AG E2 GA|BGAG EDB,D|1 EGFA G3 A:|2 EGFA G2 BA||

